X:1
T:Come Believing!
T:James McGranahan
T:Come Believing!
T:Public Domain
T:Public Domain
C:James McGranahan
Z:Public Domain
%%score ( 1 2 ) ( 3 4 )
L:1/8
M:4/4
K:G
V:1 treble 
V:2 treble 
V:3 bass 
V:4 bass 
V:1
 [DG]>[FA] | [GB]3 [GB] [Gd]2 [DG]2 | [DG]2 [DF]4 [DA][GB] | [Fc]3 [FB] [Fc]2 [Fd]2 | %4
w: 1.~Once a-|gain the Gos- pel|mes- sage From the|Sav- ior you have|
w: 2.~Ma- ny|sum- mers you have|wast- ed, Rip- ened|har- vests you have|
w: 3.~Je- sus|for your choice is|wait- ing; Tar- ry|not: at once de-|
w: 4.~Cease of|fit- ness to be|think- ing; Do not|long- er try to|
w: 5.~Let your|will to God be|giv- en, Trust in|Christ’s a- ton- ing|
 [GB]6 [DG][FA] | [GB]3 [GB] [Gd]2 [DG]2 | [DG]2 [DF]4 [DA][GB] | [Fc]3 [Fc] [GB]2 [DA]2 | [DG]6 || %9
w: heard; Will you|heed the in- vi-|ta- tion? Will you|turn and seek the|Lord?|
w: seen; Win- ter|snows by spring have|melt- ed, Yet you|ling- er in your|sin.|
w: cide! While the|Spir- it now is|striv- ing, Yield, and|seek the Sav- ior’s|side.|
w: feel; It is|trust- ing, and not|feel- ing, That will|give the Spir- it’s|seal.|
w: blood; Look to|Je- sus now in|Heav- en, Rest on|His un- chang- ing|Word.|
"^Refrain" [DG]>[GB] | [FA]2 [FA]4 [FA]>[Ac] | [GB]2 [GB]4 [GB]>[Gd] | [G^c]3 [Gc] [GB]2 [GA]2 | %13
w: ||||
w: Come be-|liev- ing! come be-|liev- ing! Come to|Je- sus! look and|
w: ||||
w: ||||
w: ||||
 (F2 G2 A2) G>[GA] | [GB]2 [GB]4 [Gd]>[DG] | [DG]2 [DF]4 [DA][=FB] | [Ec]3 [Ec] [DB]2 [DA]2 | %17
w: ||||
w: live! * * Come be-|come be- liev- ing!|Come to Je- sus!|look and live! *|
w: ||||
w: ||||
w: ||||
 [DG]6 |] %18
w: |
w: |
w: |
w: |
w: |
V:2
 x2 | x8 | x8 | x8 | x8 | x8 | x8 | x8 | x6 || x2 | x8 | x8 | x8 | d6 G3/2 x/ | x8 | x8 | x8 | %17
w: |||||||||||||||||
w: |||||||||||||liev- ing!||||
 x6 |] %18
w: |
w: |
V:3
 [G,B,]>[G,C] | [G,D]3 [G,D] [G,B,]2 [G,B,]2 | [D,B,]2 [D,A,]4 [CD][B,D] | %3
w: ~ ~|~ ~ ~ ~|~ ~ ~ ~|
 [A,D]3 [^G,D] [A,D]2 [D,D]2 | [G,D]6 [G,B,][G,C] | [G,D]3 [G,D] [G,B,]2 [G,B,]2 | %6
w: ~ ~ ~ ~|~ ~ ~|~ ~ ~ ~|
 [D,B,]2 [D,A,]4 [CD][B,D] | [A,D]3 [A,D] [D,D]2 [D,C]2 | [G,B,]6 || [G,B,]>[G,D] | %10
w: ~ ~ ~ ~|~ ~ ~ ~|~|~ ~|
 [D,D]2 [D,D]2 [D,D]2 [D,D]>[D,D] | [G,D]2 [G,D]2 [G,D]2 [G,D]>[G,B,] | [E,A,]3 [E,A,] A,2 A,2 | %13
w: ~ ~ come! ~ ~|~ ~ come! ~ ~|~ ~ look! Oh,|
 [D,A,]2 [D,B,]2 [D,C]2 [G,B,]>[G,C] | [G,D]2 [G,D]2 [G,D]2 [G,B,]>[G,B,] | %15
w: live! ~ ~ ~ ~|come! ~ ~ ~ ~|
 [D,B,]2 [D,A,]2 [D,A,]2 [D,F,]G, | [C,G,]3 [C,G,] [D,G,]2 (F,C) | [G,,G,B,]6 |] %18
w: come! * * * *|||
V:4
 x2 | x8 | x8 | x8 | x8 | x8 | x8 | x8 | x6 || x2 | x8 | x8 | x4 A,2 A,2 | x8 | x8 | x7 G, | %16
w: ||||||||||||look and||||
 x6 D,2 | x6 |] %18
w: ||

